X: 079
M: 6/8
L: 1/8
K: D
|:\
dfa gec | dfa gec | dfd Bge | ced cBA |\
dfa gec | dfa gec | dfd Bge |TcBc d2 :|
|:\

